X: 11929
T: Empty Chair, The
R: jig
M: 6/8
K: Bminor
BFF B2 d|cAA d2 e|fed cdc|BAB edc|
BFF B2 d|cAA d2 e|fed cBA|B3 B3:|
|:d3 fdf|gfg ecA|d3 ~f3|~g3 a2 a|
bgb afd|efg fdB|fed cBA|B3 B3:|

